local/share/icons/dracula-icons-main/scalable/mimetypes/application-x-addon.svg

<?xml version="1.0" encoding="UTF-8"?>
<svg xmlns="http://www.w3.org/2000/svg" xmlns:xlink="http://www.w3.org/1999/xlink" width="64" height="64" viewBox="0 0 64 64">
<defs>
<filter id="filter-remove-color" x="0%" y="0%" width="100%" height="100%">
<feColorMatrix color-interpolation-filters="sRGB" values="0 0 0 0 1 0 0 0 0 1 0 0 0 0 1 0 0 0 1 0" />
</filter>
<mask id="mask-0">
<g filter="url(#filter-remove-color)">
<rect x="-6.4" y="-6.4" width="76.8" height="76.8" fill="rgb(0%, 0%, 0%)" fill-opacity="0.1"/>
</g>
</mask>
<linearGradient id="linear-pattern-0" gradientUnits="userSpaceOnUse" x1="49.570999" y1="52.714001" x2="51.714001" y2="54.856998" gradientTransform="matrix(0.617345, 0, 0, 0.617345, -18.167916, -19.050025)">
<stop offset="0" stop-color="rgb(0%, 0%, 0%)" stop-opacity="1"/>
<stop offset="1" stop-color="rgb(0%, 0%, 0%)" stop-opacity="0"/>
</linearGradient>
<clipPath id="clip-0">
<rect x="0" y="0" width="17" height="17"/>
</clipPath>
<g id="source-13515" clip-path="url(#clip-0)">
<path fill-rule="evenodd" fill="url(#linear-pattern-0)" d="M 14.816406 12.171875 L 11.113281 15.875 L 13.492188 15.875 C 14.226562 15.875 14.816406 15.285156 14.816406 14.550781 Z M 14.816406 12.171875 "/>
</g>
</defs>
<path fill-rule="nonzero" fill="rgb(95.686275%, 95.686275%, 95.686275%)" fill-opacity="1" d="M 3.441406 1.058594 L 13.492188 1.058594 C 14.222656 1.058594 14.816406 1.652344 14.816406 2.382812 L 14.816406 14.550781 C 14.816406 15.28125 14.222656 15.875 13.492188 15.875 L 3.441406 15.875 C 2.707031 15.875 2.117188 15.28125 2.117188 14.550781 L 2.117188 2.382812 C 2.117188 1.652344 2.707031 1.058594 3.441406 1.058594 Z M 3.441406 1.058594 "/>
<g mask="url(#mask-0)">
<use xlink:href="#source-13515"/>
</g>
<path fill-rule="nonzero" fill="rgb(44.313725%, 80.392157%, 30.980392%)" fill-opacity="1" d="M 7.753906 4.402344 C 7.265625 4.371094 6.714844 4.71875 6.734375 5.253906 C 6.675781 5.570312 6.984375 5.808594 6.96875 6.09375 C 6.789062 6.175781 6.652344 6.175781 6.523438 6.175781 L 4.40625 6.175781 C 4.40625 6.785156 4.40625 7.660156 4.40625 8.269531 C 4.574219 8.628906 4.910156 8.117188 5.175781 8.171875 C 5.6875 8.0625 6.144531 8.511719 6.167969 9.003906 C 6.238281 9.476562 6.054688 10.085938 5.523438 10.179688 C 5.234375 10.230469 4.925781 10.175781 4.6875 10 C 4.402344 9.828125 4.386719 10.207031 4.40625 10.390625 L 4.40625 12.523438 L 6.84375 12.523438 C 7.203125 12.359375 6.6875 12.023438 6.742188 11.753906 C 6.636719 11.246094 7.082031 10.789062 7.578125 10.761719 C 8.046875 10.695312 8.660156 10.878906 8.753906 11.410156 C 8.800781 11.699219 8.75 12.007812 8.574219 12.246094 C 8.402344 12.527344 8.777344 12.546875 8.964844 12.523438 L 10.757812 12.523438 L 10.757812 10.101562 C 10.925781 9.738281 11.265625 10.269531 11.539062 10.191406 C 11.980469 10.277344 12.429688 9.960938 12.496094 9.515625 C 12.609375 9.023438 12.46875 8.371094 11.929688 8.199219 C 11.589844 8.082031 11.25 8.230469 10.960938 8.40625 C 10.695312 8.445312 10.765625 8.125 10.757812 7.957031 C 10.757812 7.453125 10.757812 6.679688 10.757812 6.175781 L 8.675781 6.175781 C 8.3125 6.003906 8.84375 5.667969 8.761719 5.394531 C 8.851562 4.953125 8.535156 4.503906 8.089844 4.4375 C 7.980469 4.414062 7.867188 4.402344 7.753906 4.402344 Z M 7.753906 4.402344 "/>
</svg>

<svg width="64" height="64" version="1.1" viewBox="0 0 16.933 16.933" xmlns="http://www.w3.org/2000/svg">
 <defs>
  <linearGradient id="a" x1="49.571" x2="51.714" y1="52.714" y2="54.857" gradientTransform="matrix(2.3333,0,0,2.3333,-68.667,-72.001)" gradientUnits="userSpaceOnUse">
   <stop offset="0"/>
   <stop stop-opacity="0" offset="1"/>
  </linearGradient>
 </defs>
 <g transform="scale(.26458)">
  <rect x="8" y="4" width="48" height="56" ry="5" fill="#f4f4f4" style="paint-order:stroke fill markers"/>
  <path d="m56 46-14 14h9c2.77 0 5-2.23 5-5z" fill="url(#a)" fill-rule="evenodd" opacity=".1" stroke-width="8.8191" style="paint-order:stroke fill markers"/>
 </g>
 <path d="m7.7527 4.4038c-0.48833-0.03224-1.0378 0.31461-1.0183 0.84901-0.05775 0.31806 0.24896 0.55539 0.23561 0.84243-0.18067 0.0792-0.31804 0.0792-0.44525 0.0792h-2.1166c0 0.61015 1e-6 1.4849 1e-6 2.095 0.16525 0.35983 0.50265-0.15404 0.76917-0.09846 0.50926-0.1066 0.96764 0.3398 0.99203 0.83311 0.06771 0.47064-0.11443 1.0824-0.64776 1.1771-0.28767 0.04857-0.59728-0.0047-0.83352-0.18047-0.28447-0.17171-0.30258 0.20506-0.27993 0.38962v2.134h2.4342c0.35983-0.16525-0.15404-0.50265-0.09846-0.76917-0.10654-0.50914 0.33976-0.96791 0.83311-0.99209 0.47065-0.06757 1.0824 0.11445 1.1771 0.64782 0.04857 0.28767-0.0047 0.59728-0.18047 0.83352-0.17171 0.28447 0.20506 0.30258 0.38962 0.27993l1.7948 1e-6v-2.4231c0.16921-0.36295 0.50633 0.16805 0.78146 0.08895 0.44172 0.08689 0.88936-0.2288 0.956-0.67343 0.11271-0.49203-0.02706-1.1447-0.56572-1.3173-0.34122-0.11621-0.68122 0.03221-0.96926 0.20758-0.26514 0.03742-0.19416-0.28348-0.20248-0.4489 0-0.50636-1e-6 -1.2773-1e-6 -1.7837l-1.852-1e-6h-0.23185c-0.36296-0.1692 0.16805-0.50633 0.08895-0.78146 0.08689-0.44172-0.2288-0.88936-0.67342-0.956-0.1106-0.02387-0.22396-0.03314-0.33697-0.03317z" color="#000000" fill="#71cd4f"/>
</svg>
